tools/download-figma-icons/icons/outlined-medium/oeko.svg

<svg width="24" height="24" viewBox="0 0 24 24" fill="none" xmlns="http://www.w3.org/2000/svg">
<path fill-rule="evenodd" clip-rule="evenodd" d="M22.3189 6.92968C21.8682 8.40116 20.5842 9.48714 19.5335 10.1614L21.0687 5.12746C21.1895 4.73071 20.9667 4.31147 20.5707 4.19147C20.1732 4.06847 19.7547 4.29347 19.6347 4.68946L18.0995 9.72413C18.0298 9.56289 17.9623 9.39039 17.897 9.21264C17.8783 9.16314 17.8603 9.1114 17.8415 9.0604C17.7755 8.87215 17.7125 8.67865 17.6578 8.47691C17.6555 8.47016 17.6533 8.4634 17.651 8.4559C17.5963 8.25191 17.552 8.03966 17.513 7.82591C17.5025 7.77117 17.4935 7.71642 17.486 7.66167C17.4515 7.44342 17.4245 7.22217 17.4155 6.99868C17.4148 6.99568 17.4148 6.99343 17.4148 6.99118C17.405 6.76993 17.4155 6.54643 17.4358 6.32369C17.441 6.26819 17.4478 6.21269 17.4553 6.15644C17.4845 5.93144 17.5243 5.70645 17.5918 5.4852C17.6428 5.3187 17.7043 5.15746 17.7725 5.00221C18.5427 3.30273 20.3892 2.189 21.3267 1.71201C21.8877 2.71474 22.9219 4.94896 22.3189 6.92968ZM12.9073 8.54966C11.6811 6.89144 11.9076 4.43297 12.0996 3.29824C13.0536 3.42124 14.9031 3.79323 16.2058 4.89572C16.1878 4.94747 16.172 5.00071 16.1563 5.05246C16.0835 5.29321 16.0318 5.53621 15.9928 5.7777C15.9808 5.85195 15.974 5.9262 15.9643 6.0012C15.9433 6.1722 15.9283 6.34244 15.9215 6.51269C15.9185 6.59294 15.9155 6.67244 15.9155 6.75269C15.9155 6.90944 15.9208 7.06468 15.9305 7.21993L14.5333 5.33071C14.2873 4.99996 13.8186 4.92647 13.4848 5.17396C13.1511 5.41996 13.0813 5.88945 13.3281 6.2232L16.6115 10.6616C15.3958 10.3766 13.8231 9.78639 12.9073 8.54966ZM1.50001 12.4676V9.81037H7.90941V12.4676C7.90941 14.2353 6.47093 15.6738 4.70321 15.6738C2.93699 15.6738 1.50001 14.2353 1.50001 12.4676ZM22.2372 0.324584C22.0384 0.0373387 21.6672 -0.0751596 21.3454 0.0523385C21.2134 0.104088 18.413 1.23057 16.8875 3.52929C14.6855 1.87331 11.6683 1.74581 11.5258 1.74131C11.1538 1.70981 10.8666 1.95956 10.7758 2.29555C10.7286 2.47255 9.6366 6.64924 11.7021 9.4422C13.2883 11.5842 16.1893 12.1872 17.5392 12.3544V16.4508C17.5392 19.783 14.8288 22.4927 11.4966 22.4927C8.38562 22.4927 5.81691 20.1288 5.49142 17.1026C7.71063 16.7261 9.40936 14.7934 9.40936 12.4677V9.06045C9.40936 8.64571 9.07411 8.31046 8.65937 8.31046H7.56138V5.7875C7.56138 5.37276 7.22614 5.03751 6.8114 5.03751C6.3974 5.03751 6.06141 5.37276 6.06141 5.7875V8.31046H3.1777V5.7875C3.1777 5.37276 2.84171 5.03751 2.42771 5.03751C2.01297 5.03751 1.67772 5.37276 1.67772 5.7875V8.31046H0.749989C0.335245 8.31046 0 8.64571 0 9.06045V12.4677C0 14.8189 1.73397 16.7673 3.98844 17.1138C4.32518 20.9628 7.56138 23.9927 11.4966 23.9927C15.6553 23.9927 19.0392 20.6095 19.0392 16.4508V12.1572C20.1619 11.6194 22.9316 10.0542 23.7529 7.36773L23.7536 7.36698C24.7654 4.04603 22.3407 0.475332 22.2372 0.324584Z" fill="black"/>
</svg>

<svg width="24" height="24" viewBox="0 0 24 24" fill="none" xmlns="http://www.w3.org/2000/svg"><path fill-rule="evenodd" clip-rule="evenodd" d="M22.319 6.93c-.45 1.471-1.735 2.557-2.785 3.231l1.535-5.034a.75.75 0 1 0-1.434-.438l-1.536 5.035a9.919 9.919 0 0 1-.202-.511l-.055-.153a8.413 8.413 0 0 1-.191-.604 7.96 7.96 0 0 1-.165-.794 5.723 5.723 0 0 1-.07-.663l-.001-.008a4.955 4.955 0 0 1 .04-.835c.03-.225.07-.45.137-.67.05-.167.112-.329.18-.484.77-1.7 2.617-2.813 3.555-3.29.56 1.003 1.595 3.237.992 5.218Zm-9.412 1.62c-1.226-1.659-1-4.117-.807-5.252.954.123 2.803.495 4.106 1.598-.018.051-.034.105-.05.156a5.699 5.699 0 0 0-.163.726c-.012.074-.019.148-.029.223a6.236 6.236 0 0 0-.043.512c-.002.08-.005.16-.005.24 0 .156.005.312.014.467l-1.397-1.89a.75.75 0 0 0-1.205.893l3.284 4.439c-1.216-.285-2.789-.876-3.705-2.112ZM1.5 12.468V9.81h6.41v2.658a3.21 3.21 0 0 1-3.207 3.206A3.208 3.208 0 0 1 1.5 12.468ZM22.237.325a.751.751 0 0 0-.892-.273c-.132.052-2.932 1.179-4.457 3.477-2.203-1.656-5.22-1.783-5.362-1.788-.372-.031-.66.219-.75.555-.047.177-1.14 4.353.926 7.146 1.586 2.142 4.487 2.745 5.837 2.912v4.097a6.048 6.048 0 0 1-6.042 6.042 6.049 6.049 0 0 1-6.006-5.39 4.711 4.711 0 0 0 3.918-4.635V9.06a.75.75 0 0 0-.75-.75H7.561V5.787a.75.75 0 1 0-1.5 0V8.31H3.178V5.787a.75.75 0 1 0-1.5 0V8.31H.75a.75.75 0 0 0-.75.75v3.408a4.71 4.71 0 0 0 3.988 4.646c.337 3.849 3.573 6.879 7.509 6.879 4.158 0 7.542-3.383 7.542-7.542v-4.294c1.123-.538 3.893-2.103 4.714-4.79C24.766 4.046 22.342.475 22.238.325Z" fill="currentColor"/></svg>
